X:4
T:Monday Night Jig
R:jig
C:Chris Langan
B:Move Your Finger's, The Life and Music of Chris Langan
S:http://www.cranfordpub.com/books/chris_langan_book.htm
Q:266
L:1/8
M:6/8
K:D
AG|FAA ABc|dAB AFE|DFA BdA|Bdc B2 A|
FAA ABc|dfe fdB|AFA dAF|[1DFE D:|[2DFE D2||
B|Add dfa|bfb afe|dBA dfa|daf edB|
Add dfa|dfe fdB|AFA dAF|DFE D2 B|
Add dfa|b2 f afe|dBA FED|BdB B2 d|
FAA A2 a|dfe fdB|AFA dAF|DFE D||
|:fg|afe dBA|dfe dBA|FED AFA|Bdc BdB|
AFE FED|AFd FED|AFA dAF|DFE D:|
